X: 4
T: Level4
R: reel
M: 4/4
L: 1/8
K: Emin
|:"E" ef ga bg af | "C" gg ga g2 f2 | "G" ef ga bg af | "B" ab ag f2 f2 :|
|:"D" ab ag fa gf | "C" ga bg f2 f2 | "E" ef ga bg af | "G" gf eg "B" f2 f2 :|
